!!!SOCIAL_FUNCTION:	dream songs
!!!PDT:	1909
!!!OTL: No_115_The_Approach_of_the_Storm.krn
!!!REG: Great_Lakes
!!!LANG: Non-Tone
!!!LING_GROUP: Algonquin
**kern	**kern
*staff2	*staff1
=1-	=1-
*clefF4	*clefF4
*k[b-e-]	*k[b-e-]
*M3/4	*M3/4
2.r	2f\
.	8.f\L
.	16d\Jk
=2	=2
12GG^/	2f\
12r	.
12GG/	.
12GG^/	.
12r	.
12GG/	.
12GG^/	12f\L
12r	12d\
12GG/	12c\J
=3	=3
2.r	8.B-\L
.	16B-\Jk
.	4.B-\
.	8B-\
=4	=4
2.r	2.B-\
=5	=5
2.r	2f\
.	8.f\L
.	16d\Jk
=6	=6
2.r	2f\
.	12f\L
.	12d\
.	12c\J
=7	=7
2.r	8.B-\L
.	16B-\Jk
.	4.B-\
.	8B-\
=8||	=8||
*M2/4	*M2/4
2r	[2B-\
=9	=9
2r	4B-\]
.	8.d\L
.	16d\Jk
=10||	=10||
*M3/4	*M3/4
2.r	2f\
.	(12f\L
.	12d\)
.	12f\J
=11	=11
2.r	2B-\
.	8.B-\L
.	16G\Jk
=12||	=12||
*M2/4	*M2/4
2r	4B-\
.	(12d\L
.	12c\)
.	12d\J
=13||	=13||
*M3/4	*M3/4
2.r	2B-\
.	(12G\L
.	12F\)
.	12G\J
=14	=14
2.r	2F\
.	12F\L
.	12D\
.	12C\J
=15	=15
2.r	8.BB-/L
.	16BB-/Jk
.	4.BB-/
.	8BB-/
=16	=16
2.r	2.BB-/
==	==
*-	*-
